X:311
M:C
L:1/8
K:E Minor
e|B<E E>F B>A F<A|B>E E>F D>EF>A|B<E E>F B>AF>A|
d>BA>F ~E2 E:|
|:F|D<d d>e d/^c/B/A/ d2|F<A A>B A<F A2|B<e e>f g>fe>d|

